X:12362
T:Old Peter Street
R:reel
D:Paddy Glackin: In Full Spate
Z:id:hn-reel-689
M:C|
K:A
A2GA FAEc|BEcE dEcB|A2GA FAEc|BEGB AdcB|
A2GA FAED|CEAc dcdf|ece=g fdfa|1 ^gbeg afec:|2 ^gbeg aefg||
|:aA~A2 eAcA|dcBA GBEg|aA~A2 eAcA|GABc defg|
a2gb aece|fdBA GBed|ceAc dfBa|1 gbeg aefg:|2 gbeg afec||
